!!!COM:	Compere, Loyset
!!!CDT:	~1445///-1518/08/16
!!!OTL:	Une plaisante fillette
!!!AGN:	Song; Chanson
!!!SCT:	Com3042
!!!SCA:	Com3042
!!!voices:	4
**kern	**kern	**kern	**kern
*staff4	*staff3	*staff2	*staff1
*Ivox	*Ivox	*Ivox	*Ivox
*I"Bassus	*I"Tenor	*I"Altus	*I"Superius
*I'B	*I'T	*I'A	*I'S
*clefF4	*clefGv2	*clefGv2	*clefG2
*k[b-]	*k[b-]	*k[b-]	*k[b-]
*M2/1	*M2/1	*M2/1	*M2/1
*met(C|)	*met(C|)	*met(C|)	*met(C|)
=1-	=1-	=1-	=1-
1F	0r	0r	0r
2F	.	.	.
2F	.	.	.
=2	=2	=2	=2
2.F	0r	1F	0r
4G	.	.	.
2A	.	2F	.
[2A	.	2F	.
=3	=3	=3	=3
4A]	1F	2.F	1r
4G	.	.	.
4F	.	.	.
4E	.	4G	.
[1D	2F	2A	1f
.	2F	2A	.
=4	=4	=4	=4
2D]	2.F	4F	2f
.	.	4G	.
4C	.	4A	2f
4BB-	4G	4B-	.
2AA	1A	2c	2.f
[2D	.	[2A	.
.	.	.	4g
=5	=5	=5	=5
4D]	4F	2A]	2a
4E	4G	.	.
2F	4A	4G	2a
.	4B-	4F	.
2C	2c	2E	2g
[2F	2F	2D	[2a
=6	=6	=6	=6
2F]	2A	1F	4a]
.	.	.	8gL
.	.	.	8fJ
2BB-	2B-	.	1f
1C	1G	2C	.
.	.	[2c	2e
=7	=7	=7	=7
1FF	0F	4c]	0f
.	.	4B-	.
.	.	4A	.
.	.	4G	.
1r	.	1A	.
=8	=8	=8	=8
1D	1r	1F	0r
2D	[1A	1r	.
2D	.	.	.
=9	=9	=9	=9
1C	2A]	0r	0r
.	2A	.	.
2.C	1G	.	.
8BB-L	.	.	.
8AAJ	.	.	.
=10	=10	=10	=10
1GG	2.G	1d	1r
.	8FL	.	.
.	8EJ	.	.
1r	2.D	2d	1a
.	.	2d	.
.	4E	.	.
=11	=11	=11	=11
0r	2.F	1c	2a
.	.	.	2a
.	4E	.	.
.	[1C	2.c	1g
.	.	8B-L	.
.	.	8AJ	.
=12	=12	=12	=12
1r	1C]	1G	2.g
.	.	.	8fL
.	.	.	8eJ
1BB-	1r	1r	[1d
=13	=13	=13	=13
2BB-	1r	1B-	0d_
2BB-	.	.	.
2.BB-	1F	2B-	.
.	.	2B-	.
4C	.	.	.
=14	=14	=14	=14
2D	2F	2.B-	1d]
2D	2F	.	.
.	.	4c	.
4BB-	2.F	2d	1r
4C	.	.	.
4D	.	2d	.
4E	4G	.	.
=15	=15	=15	=15
1F	1A	1.c	0r
2E	2G	.	.
2F	2A	2d	.
=16	=16	=16	=16
4E	4G	4c	0r
4D	4F	4B-	.
4C	4E	4A	.
4BB-	4D	4G	.
1C	1E	1A	.
=17	=17	=17	=17
0BB-	1F	1B-	1f
.	2r	1d	2f
.	[2F	.	2f
=18	=18	=18	=18
0F	4F]	2.c	2.f
.	4G	.	.
.	4A	.	.
.	4B-	4B-	4g
.	2.c	4A	2a
.	.	4G	.
.	.	2F	2a
.	4A	.	.
=19	=19	=19	=19
2r	2B-	2G	2g
2.F	2c	2.c	2.a
.	1F	.	.
4E	.	4A	8gL
.	.	.	8fJ
2D	.	2B-	[2f
=20	=20	=20	=20
1C	1G	0c	2f]
.	.	.	2e
1FF	[1F	.	[1f
=21	=21	=21	=21
1r	1F]	1r	1f]
1F	1r	1A	1cc
=22	=22	=22	=22
2G	0r	2G	2b-
2D	.	2A	2a
2G	.	1B-	2g
2G	.	.	2b-
=23	=23	=23	=23
2.F	1.c	2c	2.a
.	.	2F	.
8EL	.	.	8gL
8DJ	.	.	8fJ
2C	.	1G	4e
.	.	.	4f
2GG	2B-	.	[2g
=24	=24	=24	=24
2.AA	1A	1C	2g]
.	.	.	2f
4BB-	.	.	.
1C	1G	2r	2f
.	.	2c	2e
=25	=25	=25	=25
2r	2F	2c	2f
2C	2c	2c	1g
1D	2.A	1F	.
.	.	.	[2f
.	8GL	.	.
.	8FJ	.	.
=26	=26	=26	=26
1C	1G	2r	2f]
.	.	2c	2e
[1FF	1F	2c	2f
.	.	2c	2cc
=27	=27	=27	=27
1FF]	2r	1A	2cc
.	2c	.	2cc
2r	2c	1r	1a
2F	2c	.	.
=28	=28	=28	=28
2F	1A	2r	0r
2F	.	2A	.
[1D	2r	2A	.
.	2d	2A	.
=29	=29	=29	=29
1D]	2d	1F	2r
.	2d	.	2a
2r	1c	2r	2a
2F	.	2f	2a
=30	=30	=30	=30
2G	2r	2d	1g
2G	2G	2e	.
1D	1A	[1f	2r
.	.	.	2dd
=31	=31	=31	=31
1BB-	1B-	0f]	2dd
.	.	.	2dd
[1F	2A	.	2.cc
.	[2F	.	.
.	.	.	4b-
=32	=32	=32	=32
1F]	4F]	2r	2.a
.	4G	.	.
.	4A	1c	.
.	4B-	.	8gL
.	.	.	8fJ
2C	2c	.	4e
.	.	.	4f
2FF	2B-	2d	[2g
=33	=33	=33	=33
2C	2.A	2c	2g]
2D	.	2B-	1f
.	8GL	.	.
.	8FJ	.	.
1C	1G	1c	.
.	.	.	2e
=34	=34	=34	=34
2r	0F	1A	0f
2FF	.	.	.
2FF	.	2r	.
2FF	.	2F	.
=35	=35	=35	=35
2.FF	0r	2F	0r
.	.	2F	.
4GG	.	.	.
2AA	.	2.F	.
2AA	.	.	.
.	.	4G	.
=36	=36	=36	=36
4FF	0r	2A	0r
4GG	.	.	.
4AA	.	2A	.
4BB-	.	.	.
2.C	.	4G	.
.	.	4F	.
.	.	4E	.
4BB-	.	4D	.
=37	=37	=37	=37
2C	0r	2C	0r
2.BB-	.	2.G	.
4AA	.	4F	.
4GG	.	[2F	.
4FF	.	.	.
=38	=38	=38	=38
1GG	1r	2F]	0r
.	.	2E	.
1FF	1A	2F	.
.	.	2c	.
=39	=39	=39	=39
1F	2A	2c	1a
.	2A	2c	.
2D	1A	[1d	2a
2D	.	.	2a
=40	=40	=40	=40
1G	1B-	1d]	1g
1C	1c	1e	2.g
.	.	.	8fL
.	.	.	8eJ
=41	=41	=41	=41
0D	0A	2f	1.d
.	.	2F	.
.	.	2F	.
.	.	2F	[2f
=42	=42	=42	=42
2r	0r	2.F	2f]
2F	.	.	4e
.	.	4G	4d
2F	.	2A	[1c
2F	.	2A	.
=43	=43	=43	=43
2.F	2r	4F	1c]
.	.	4G	.
.	2F	4A	.
4G	.	4B-	.
2A	2F	1c	1r
2A	2F	.	.
=44	=44	=44	=44
1D	2.F	1A	1f
.	4G	.	.
[1D	2A	[1d	2f
.	2A	.	2f
=45	=45	=45	=45
2D]	4F	1d]	2.f
.	4G	.	.
1F	4A	.	.
.	4B-	.	4g
.	2c	1c	2a
4E	[2d	.	2a
4D	.	.	.
=46	=46	=46	=46
2E	4d]	1r	2g
.	4c	.	.
2F	1c	.	2.a
1D	.	1F	.
.	.	.	4g
.	2Bni	.	4f
.	.	.	8eL
.	.	.	8dJ
=47	=47	=47	=47
0C	0c	2.G	0e
.	.	4G	.
.	.	2G	.
.	.	2G	.
=48	=48	=48	=48
0r	1.c	2F	1r
.	.	4E	.
.	.	4D	.
.	.	1C	1cc
.	2c	.	.
=49	=49	=49	=49
0r	1d	0r	2b-
.	.	.	2a
.	1e	.	2g
.	.	.	2b-
=50	=50	=50	=50
0r	2.f	0r	2.a
.	8eL	.	8gL
.	8dJ	.	8fJ
.	2c	.	4e
.	.	.	4f
.	[2B-	.	[2g
=51	=51	=51	=51
0r	2B-]	0r	2g]
.	2A	.	1f
.	1G	.	.
.	.	.	2e
=52	=52	=52	=52
2r	1F	1r	0f
2F	.	.	.
2F	1r	1c	.
2F	.	.	.
=53	=53	=53	=53
2.F	0r	2c	0r
.	.	2c	.
4G	.	.	.
2A	.	2c	.
2A	.	2c	.
=54	=54	=54	=54
2G	0r	2B-	0r
2A	.	2c	.
4G	.	4B-	.
4F	.	4A	.
4E	.	4G	.
4D	.	4F	.
=55	=55	=55	=55
1E	1r	1G	1r
2F	2r	2F	2r
2D	2A	2d	2f
=56	=56	=56	=56
1D	1A	1d	1f
1D	1A	1d	1f
=57	=57	=57	=57
1GG	1G	1B-	1g
1C	2.G	1c	1g
.	8FL	.	.
.	8EJ	.	.
=58	=58	=58	=58
1BB-	0D	[0d	2.b-
.	.	.	4a
2r	.	.	[1f
2BB-	.	.	.
=59	=59	=59	=59
2BB-	2r	0d]	1f]
2BB-	2F	.	.
2.BB-	2F	.	1r
.	2F	.	.
4C	.	.	.
=60	=60	=60	=60
2D	2.F	0r	0r
2D	.	.	.
.	4G	.	.
2.C	1A	.	.
4AA	.	.	.
=61	=61	=61	=61
2BB-	2G	0r	0r
2C	2A	.	.
4BB-	4G	.	.
4AA	4F	.	.
4GG	4E	.	.
4FF	4D	.	.
=62	=62	=62	=62
1GG	1E	0r	0r
[1FF	[1F	.	.
=63	=63	=63	=63
1FF]	1F]	0c	0r
1F	1A	.	.
=64	=64	=64	=64
2BB-	2G	2.B-	0r
2BB-	2F	.	.
.	.	4A	.
2C	2E	2G	.
2GG	2D	2B-	.
=65	=65	=65	=65
1D	1F	2.A	0r
.	.	8GL	.
.	.	8FJ	.
2C	2r	4E	.
.	.	4F	.
[2BB-	[2D	[2G	.
=66	=66	=66	=66
4BB-]	2D]	2G]	0r
4AA	.	.	.
4GG	1C	2F	.
4FF	.	.	.
2GG	.	2F	.
2GG	2BB-	2E	.
=67	=67	=67	=67
0FF	1C	0F	2r
.	.	.	2f
.	2r	.	2f
.	2F	.	2f
=68	=68	=68	=68
0r	2F	1c	2a
.	2F	.	2a
.	2.F	2c	2.a
.	.	2c	.
.	4G	.	8gL
.	.	.	8fJ
=69	=69	=69	=69
1r	1A	2c	0e
.	.	2c	.
1C	2G	2.c	.
.	[2A	.	.
.	.	4d	.
=70	=70	=70	=70
2C	2A]	2e	1r
2AA	4G	1f	.
.	4F	.	.
2BB-	1G	.	1g
2C	.	2e	.
=71	=71	=71	=71
1FF	0F	2.f	2a
.	.	.	2a
.	.	4e	.
1FF	.	[1c	2a
.	.	.	2a
=72	=72	=72	=72
1r	1A	1c]	[0e
1C	2A	1r	.
.	2A	.	.
=73	=73	=73	=73
2C	1G	1r	1e]
2C	.	.	.
1BB-	1G	1d	1r
=74	=74	=74	=74
1BB-	2D	2d	1r
.	2F	2d	.
[1FF	2F	2c	2r
.	2F	2c	2f
=75	=75	=75	=75
1FF]	2.F	1A	2f
.	.	.	2f
.	4G	.	.
1r	1A	1r	2.f
.	.	.	4g
=76	=76	=76	=76
0r	4F	0r	2a
.	4G	.	.
.	4A	.	2a
.	4B-	.	.
.	4c	.	2g
.	4B-	.	.
.	2c	.	2a
=77	=77	=77	=77
1r	4B-	1r	4g
.	4A	.	4f
.	4G	.	4e
.	4F	.	4d
[1C	[1G	[1c	[1e
=78	=78	=78	=78
1C]	1G]	1c]	1e]
2D	1r	2B-	1r
2D	.	2A	.
=79	=79	=79	=79
2E	0r	2G	0r
2E	.	2B-	.
2.F	.	2.A	.
8EL	.	8GL	.
8DJ	.	8FJ	.
=80	=80	=80	=80
2C	0r	4E	0r
.	.	4F	.
1BB-	.	4G	.
.	.	4A	.
.	.	2G	.
2AA	.	[2F	.
=81	=81	=81	=81
1GG	0r	2F]	0r
.	.	2E	.
[1FF	.	[1F	.
=82	=82	=82	=82
0FF]	0A	1F]	0cc
.	.	1c	.
=83	=83	=83	=83
2r	2G	2d	2b-
2F	2A	2d	2a
2G	1B-	2e	2g
2G	.	2e	2b-
=84	=84	=84	=84
1F	1.c	1f	2.a
.	.	.	8gL
.	.	.	8fJ
1r	.	2r	4e
.	.	.	4f
.	[2B-	[2d	[2g
=85	=85	=85	=85
0r	4B-]	2d]	2g]
.	4A	.	.
.	4G	1c	1f
.	4F	.	.
.	1G	.	.
.	.	2B-	2e
=86	=86	=86	=86
0r	0F	2c	1f
.	.	2c	.
.	.	2c	2r
.	.	2c	2cc
=87	=87	=87	=87
1r	2r	1A	2cc
.	2c	.	2cc
2r	2c	1r	1a
2F	2c	.	.
=88	=88	=88	=88
2F	0A	2r	1r
2F	.	2f	.
[1D	.	2f	2r
.	.	2f	2dd
=89	=89	=89	=89
1D]	0r	2.d	2dd
.	.	.	2dd
.	.	8cL	.
.	.	8B-J	.
1F	.	1A	1cc
=90	=90	=90	=90
2G	2r	2G	2b-
2D	2d	2F	1a
1F	2d	1A	.
.	2d	.	4g
.	.	.	4f
=91	=91	=91	=91
2.C	1.c	1G	2e
.	.	.	4c
4BB-	.	.	4d
2AA	.	2r	4e
.	.	.	4f
2GG	[2B-	2d	[2g
=92	=92	=92	=92
2BB-	4B-]	2d	2g]
.	4A	.	.
2D	4G	2A	1f
.	4F	.	.
1C	2G	1c	.
.	2G	.	2e
=93	=93	=93	=93
[0FFl	[0Fl	2r	[0fl
.	.	2c	.
.	.	2c	.
.	.	2c	.
=94	=94	=94	=94
0FF]	0F]	0Al	0f]
==	==	==	==
*-	*-	*-	*-
!!!RDF**kern: l=long note in original notation
!!!RDF**kern: i=editorial accidental
!!!ENC:	Megan K. Eagen 2013/11/30
!!!END:	2013/11/30/
!!!EED:	Jesse Rodin
!!!EEV:	2014/02/23/
!!!ONB:	Translated from MusicXML and edited on 2014/02/23/ by Craig Sapp
!!muse2ps: C^@{COM}^i2I150v85,85,85,150Q16
